X: 1
T: Flautist Fluter, The
M: 6/8
L: 1/8
R: jig
K: Gmaj
DEB ~G3|BAG ABd|e-Be- dB-A|BGA G{G}GE|
DEB ~G3|BAG ABd|e-Be- dB-A|1AGE G3:|2AGE GBd||
|:eBe dge|dBA G{G}GE|D-EG- EA-G|BAG ABd|
eBe dge|dBA G{G}GE|D-EG- EB-G|1AGE GBd:|2AGE G3||
